X:32
T:Loch Ruan 
C:Joe Buchanan's Scottish Tome - Page 035.2
I:035 2
C:P.M. G. McIntyre
R:Hornpipe
Z:Carl Allison
L:1/8
M:4/4
K:D
A>B | "D" d2 (Aa) f2 ed | "G" e2 (fg) B2 e>d | "A" c2 (BA) g2 ec | "D" d2 (ef) "A"A2 (A>B) |
"D" d2 (Aa) f2 (ed) | "Em" e2 (fg) B2 (e>d) | "A" c2 (BA) g2 (ec) | "D" d4 d2 :|
(f>g) | "D" a2 (f>d) Aafd | "G" e2 (fg) B2 (e>f) | "A7" g2 (e>c) Agec | "D" d2 (ef) A2 (f>g) |
"D" a2 (f>d) Aafd | "Em" e2 (fg) B2 (e>d) | "A" c2 (BA) g2 (ec) | "D" d4 d2 :|

